X: 36746
T: Sheik's Fancy, The
R: polka
M: 2/4
K: Dmixolydian
|:A/B/A/G/ FD|d/c/d/e/ fd|cA AG|EF G^G|
A/B/A/G/ FD|d/c/d/e/ fd|cA A/B/A/G/|FD D2:|
fd dA|d/e/f/g/ a>f|ge e>d|^cd e>g|
[1 fd dA|d/e/f/g/ a>f|ge e/b/a/g/|fd de:|
[2 de/d/ cA|GF/G/ A>B|cA G/B/A/G/|FA AA||

